ligands/haptic/eta3-cyclopentyl.svg

<svg height="45" viewBox="0 0 66 45" width="66" xmlns="http://www.w3.org/2000/svg"><g transform="matrix(.05 0 0 .05 -170 -244)"><path d="m4038.89 5720.08-20-.37 1.01-54.53 20 .37z"/><path d="m4040.91 5611.01-20-.37 1.01-54.54 20 .37z"/><path d="m4042.93 5501.94-20-.37 1.01-54.54 20 .37z"/><path d="m4044.95 5392.87-20-.37.43-23.01h20z"/><path d="m4030 5119.81 20 .38-.05 2.59h-20z"/><path d="m3654.16 5344.49 90.08-80h630.56l90.12 80z"/><path d="m3746.08 5197.78v-20h627.07v20z"/><path d="m3458.07 5078.39 40.67 11.13 245.5 174.97-90.08 80z"/><path d="m4060.43 4939.11-.01 20.53-561.68 129.88-40.67-11.13z"/><path d="m4058.16 5013.64 4.51 19.49-49.04 11.33-4.5-19.48z"/><path d="m3960.1 5036.31 4.5 19.49-49.03 11.34-4.5-19.49z"/><path d="m3862.04 5058.99 4.5 19.49-49.03 11.33-4.51-19.48z"/><path d="m3763.97 5081.66 4.51 19.49-49.03 11.34-4.51-19.49z"/><path d="m3665.91 5104.34 4.51 19.49-49.03 11.33-4.51-19.48z"/><path d="m4661.93 5078.41-40.74 11.09-560.77-129.86.01-20.53z"/><path d="m4503.04 5115.51-4.52 19.49-48.93-11.33 4.52-19.49z"/><path d="m4405.18 5092.85-4.51 19.49-48.93-11.33 4.51-19.49z"/><path d="m4307.32 5070.19-4.51 19.48-48.93-11.33 4.51-19.48z"/><path d="m4209.46 5047.53-4.51 19.48-48.93-11.33 4.51-19.48z"/><path d="m4111.6 5024.87-4.51 19.48-48.93-11.33 4.51-19.49z"/><path d="m4621.19 5089.5 40.74-11.09-197.01 266.08-90.12-80z"/></g></svg>

<svg xmlns="http://www.w3.org/2000/svg" xmlns:xlink="http://www.w3.org/1999/xlink" width="66" height="45" version="1.1" viewBox="0 0 66 45" style="background-color:#ffffff00"><path fill="#000" stroke="none" d="M 4038.89,5720.08 L 4018.89,5719.71 L 4019.9,5665.18 L 4039.9,5665.55 L 4038.89,5720.08 L 4038.89,5720.08 Z" transform="matrix(0.05 0 0 0.05 -170 -244)"/><path fill="#000" stroke="none" d="M 4040.91,5611.01 L 4020.91,5610.64 L 4021.92,5556.1 L 4041.92,5556.47 L 4040.91,5611.01 L 4040.91,5611.01 Z" transform="matrix(0.05 0 0 0.05 -170 -244)"/><path fill="#000" stroke="none" d="M 4042.93,5501.94 L 4022.93,5501.57 L 4023.94,5447.03 L 4043.94,5447.4 L 4042.93,5501.94 L 4042.93,5501.94 Z" transform="matrix(0.05 0 0 0.05 -170 -244)"/><path fill="#000" stroke="none" d="M 4044.95,5392.87 L 4024.95,5392.5 L 4025.38,5369.49 L 4045.38,5369.49 L 4044.95,5392.87 L 4044.95,5392.87 Z" transform="matrix(0.05 0 0 0.05 -170 -244)"/><path fill="#000" stroke="none" d="M 4030,5119.81 L 4050,5120.19 L 4049.95,5122.78 L 4029.95,5122.78 L 4030,5119.81 L 4030,5119.81 Z" transform="matrix(0.05 0 0 0.05 -170 -244)"/><path fill="#000" stroke="none" d="M 3654.16,5344.49 L 3744.24,5264.49 L 4374.8,5264.49 L 4464.92,5344.49 L 3654.16,5344.49 Z" transform="matrix(0.05 0 0 0.05 -170 -244)"/><path fill="#000" stroke="none" d="M 3746.08,5197.78 L 3746.08,5177.78 L 4373.15,5177.78 L 4373.15,5197.78 L 3746.08,5197.78 Z" transform="matrix(0.05 0 0 0.05 -170 -244)"/><path fill="#000" stroke="none" d="M 3458.07,5078.39 L 3498.74,5089.52 L 3744.24,5264.49 L 3654.16,5344.49 L 3458.07,5078.39 Z" transform="matrix(0.05 0 0 0.05 -170 -244)"/><path fill="#000" stroke="none" d="M 4060.43,4939.11 L 4060.42,4959.64 L 3498.74,5089.52 L 3458.07,5078.39 L 4060.43,4939.11 Z" transform="matrix(0.05 0 0 0.05 -170 -244)"/><path fill="#000" stroke="none" d="M 4058.16,5013.64 L 4062.67,5033.13 L 4013.63,5044.46 L 4009.13,5024.98 L 4058.16,5013.64 Z" transform="matrix(0.05 0 0 0.05 -170 -244)"/><path fill="#000" stroke="none" d="M 3960.1,5036.31 L 3964.6,5055.8 L 3915.57,5067.14 L 3911.07,5047.65 L 3960.1,5036.31 Z" transform="matrix(0.05 0 0 0.05 -170 -244)"/><path fill="#000" stroke="none" d="M 3862.04,5058.99 L 3866.54,5078.48 L 3817.51,5089.81 L 3813,5070.33 L 3862.04,5058.99 Z" transform="matrix(0.05 0 0 0.05 -170 -244)"/><path fill="#000" stroke="none" d="M 3763.97,5081.66 L 3768.48,5101.15 L 3719.45,5112.49 L 3714.94,5093 L 3763.97,5081.66 Z" transform="matrix(0.05 0 0 0.05 -170 -244)"/><path fill="#000" stroke="none" d="M 3665.91,5104.34 L 3670.42,5123.83 L 3621.39,5135.16 L 3616.88,5115.68 L 3665.91,5104.34 Z" transform="matrix(0.05 0 0 0.05 -170 -244)"/><path fill="#000" stroke="none" d="M 4661.93,5078.41 L 4621.19,5089.5 L 4060.42,4959.64 L 4060.43,4939.11 L 4661.93,5078.41 Z" transform="matrix(0.05 0 0 0.05 -170 -244)"/><path fill="#000" stroke="none" d="M 4503.04,5115.51 L 4498.52,5135 L 4449.59,5123.67 L 4454.11,5104.18 L 4503.04,5115.51 Z" transform="matrix(0.05 0 0 0.05 -170 -244)"/><path fill="#000" stroke="none" d="M 4405.18,5092.85 L 4400.67,5112.34 L 4351.74,5101.01 L 4356.25,5081.52 L 4405.18,5092.85 Z" transform="matrix(0.05 0 0 0.05 -170 -244)"/><path fill="#000" stroke="none" d="M 4307.32,5070.19 L 4302.81,5089.67 L 4253.88,5078.34 L 4258.39,5058.86 L 4307.32,5070.19 Z" transform="matrix(0.05 0 0 0.05 -170 -244)"/><path fill="#000" stroke="none" d="M 4209.46,5047.53 L 4204.95,5067.01 L 4156.02,5055.68 L 4160.53,5036.2 L 4209.46,5047.53 Z" transform="matrix(0.05 0 0 0.05 -170 -244)"/><path fill="#000" stroke="none" d="M 4111.6,5024.87 L 4107.09,5044.35 L 4058.16,5033.02 L 4062.67,5013.53 L 4111.6,5024.87 Z" transform="matrix(0.05 0 0 0.05 -170 -244)"/><path fill="#000" stroke="none" d="M 4621.19,5089.5 L 4661.93,5078.41 L 4464.92,5344.49 L 4374.8,5264.49 L 4621.19,5089.5 Z" transform="matrix(0.05 0 0 0.05 -170 -244)"/></svg>
